X:1152
T:Duke of Brunswick's Do.
M:C
L:1/8
Q:1/4=80
I: :: ::
Z:Jack Campin * www.campin.me.uk * 2009
K:D
a>f|dz/ d/d>d f>d    g>e|a>f d'>b  a3        g |fe``fg   ba``gf |e2  e>e e2      :|
g>e|cz/ c/c>c d z/ f/g>a|gz/ e/f>g f2     a>~a |d'2 f>~f a2  c>c|d>f A>A Az/ e/f>g|
   (g4        f)z/ g/a>b|b4        az/ d'/c'>d'|b>b`a>b  g>e aA |d2  d>d d2      |] 
<end>
<start>
